X:14
T:Vicksburg Stomp
C:Charlie McCoy
N:From the CD "Early Mandolin Classics" by the Mississippi Mud Stompers Transcribed by Mike Stangeland 
L:1/8
Q:1/4=175
M:4/4
K:E
z8 | [e2B2E2B,2] "E"B=c ^c4 | [e2B2E2B,2] B=c ^c4 | [e2B2E2B,2] B=c ^c4 | "E7"=g^g =ge zc B2 | 
"A7"AA cc e2 f2 | =gf eg zf e2 | "E"EE GG Bc zc | "C#7"ec zG Bc zc | "B7"f=d zc B2 BB | 
"C#7"ce2(3"B7"c2 (3B2=G2 G2 | "E"EE EE EE EE |: E2 [EB,][E2B,2]E Ee | (3"E"=f=gg (3ggg (3ggg (3g^f=f | 
(3eee (3eee (3eee (3e=f^f | (3=ggg (3ggg (3ggg (3gf=f | (3"E7"eee (3dc=c (3^c=dd (3ddd | 
(3"A7"=f=gg (3ggg (3ggg (3g^f=f | (3eee (3edd (3=dc=c A2 | "E"EE GG Bc zc | "C#7"ec zG Bc zc | 
"B7"f=d zc B2 BB | "C#7"ce2(3"B7"c2 (3B2=G2 G2 | "E"EE EE EE EE | E2 B,B, zB, B,2 | 
"E"B2 e2 e2 c2 | e2 c2 =G2 E2 | B,2 E2 (3e2c2 B2 | "E7"(3e2c2 B2 (3=G2E2 F2 | 
"A7"A,A, CC EF2E | =GF E2 (3G2E2 F2 | "E"EE GG Bc zc | "C#7"ec zG Bc zc | "B7"f=d zc B2 BB | 
"C#7"ce2(3"B7"c2 (3B2=G2 G2 | "E"EE EE EE EE :| E2 [EB,][EB,] z[EB,] [E2B,2] | 
"E"B2 e2 e2 c2 | e2 c2 =G2 E2 | B,2 E2 (3e2c2 B2 | "E7"(3e2c2 B2 (3=G2E2 F2 | 
"A7"A,A, CC EF2E | =GF E2 (3G2E2 F2 | "E"EE GG Bc zc | "C#7"ec zG Bc zc | "B7"f=d zc B2 BB | 
"C#7"ce3 (3c2B2 c2 | "E"e3c e3c | e2 c2 ee2e | (3e2d2 =dc z4 | f2 g2 c2 d2 | e4 e4 | 


